X:1
T:Title
%%score 1 2 3 4
L:1/8
M:4/4
K:C
V:1 treble-8 nm="Part_1"
V:2 treble-8 nm="Part_2"
V:3 bass nm="Part_3"
V:4 bass nm="Part_4"
V:1
 z8 | z8 | z4 z2 c2 | B2 B2 z4 | z dcB c3 d | B2 c4 B2 | c8 | z8 | z8 | z2 G4 GG | c4 B4 | e8 | %12
 d2 d2 B2 B2 | z4 z2 d2 | B2 B2 z dcB | c2 Bc A3 A | B4 z4 | z4 z2 d2 | B2 B2 z4 | z8 | %20
 z2 dc BA GF | E2 E2 z4 | z2 ed cB AG | A2 A2 z2 c2 | d4 z2 d2 | e4 z2 G2- | G2 G4 FE | D4 D2 D2 | %28
 E8 | z2 e2 d2 e2 | (c2 d2) B4 | z BBB B2 c2 | d4 d4 | z8 | e2 de cc B2 | AABc dd c2 | B4 e2 de | %37
 c2 c2 f2 ef | d2 d2 e4 | d4 z4 | z4 z2 d2- | d2 B2 e4 | A4 z2 G2- | G2 c2 d4 | e8 | z8 | z8 | z8 | %48
 z8 | z8 | z8 | z2 c4 _B2 | A2 A2 z4 | z2 d4 c2 | B2 B2 z4 | z2 c4 _B2 | A2 A2 z4 | z2 d4 _B2 | %58
 A2 A2 z2 A2 | c2 _BA A4 | G4 z4 | z ccG _B2 G2 | A2 A2 GA _B2 | A4 z ccA | B2 G2 A2 c2 | %65
 d2 e2 d4 | c2 d4 z2 | z2 e4 z2 | feee eeed | dddd d2 cB | B8 | ^c2 A4 z2 | _BAAA AAAG | %73
 GGGG G2 FE | E8 | ^F8 | z2 G4 c2 | c4 c2 d2 | e4 e2 c2 | d8 | c8 |] %81
V:2
 z8 | z8 | z8 | z4 z2 G2 | F2 F2 z4 | z8 | z2 G4 GG | A4 G4 | c8 | B8 | z8 | z4 z2 c2 | B2 B2 z4 | %13
 z2 B2 A2 A2 | z GFE F3 F | E2 G4 ^F2 | G4 z4 | z2 c2 A2 A2 | z2 dc BA GF | E2 E2 ^C2 CC | %20
 D4 z2 d2 | c2 c2 z4 | z8 | z2 cB AG FE | D2 A2 G2 GG | c4 z2 E2- | E2 E4 DC | C4 C2 B,2 | C8 | %29
 z2 c2 B2 c2 | A4 ^G4 | z ^GGG G2 A2 | B4 B4 | z4 z GAB | cc B2 A2 z2 | z ^FGA BB A2 | G4 c2 Bc | %37
 A2 A2 d2 cd | B2 B2 c4 | B2 G4 E2 | A4 D4 | B4 G2 c2- | c2 d2 G2 c2 | (c4 B4) | c8 | z8 | z8 | %47
 z8 | z2 F4 F2 | c2 c2 z2 c_B | A6 _BA | G8 | F2 AA A2 Bc | d2 d2 z4 | z2 GG G2 AB | c2 c2 z4 | %56
 z2 c4 A2 | _BB B4 G2 | ^F2 F2 z2 FG | A2 GG G2 ^F2 | G4 z4 | z8 | z ccA _B2 G2 | A2 A2 z4 | %64
 z ddB c2 A2 | BBcc c2 B2 | c2 A4 z2 | z2 B4 z2 | cBBA AAA^G | ^GGGG A2 AA | A4 ^G4 | A2 E4 z2 | %72
 FEED DDD^C | ^CCCC D2 DD | D4 ^C4 | D8 | z2 G4 G2 | A4 A2 G2 | G4 G2 c2 | (c4 B4) | c8 |] %81
V:3
 z2 C,4 C,C, | F,4 E,4 | A,8 | G,2 G,,2 G,4 | D,4 z A,G,F, | G,2 E,F, D,3 D, | C,8 | z8 | z8 | %9
 z4 z2 G,2 | E,2 E,2 z4 | z2 G,2 E,2 E,2 | z4 z G,^F,E, | D,2 B,,C, D,3 D, | G,,4 z4 | z8 | %16
 z2 G,F, E,D, C,B,, | A,,2 A,,2 ^F,,2 F,,F,, | G,,4 z4 | z2 C,2 A,,2 A,,A, | ^F,2 F,2 z4 | %21
 z2 G,F, E,D, C,B,, | A,,2 A,,2 z2 E,2 | F,4 z4 | z2 F,2 G,4 | z2 C,4 C,2 | z2 E,,4 F,,2 | %27
 G,,4 G,,2 G,,2 | C,8 | z2 C,2 G,2 E,2 | F,4 E,4 | z E,E,E, E,2 A,,2 | G,,4 G,,4 | %33
 G,2 F,G, E,E, D,2 | C,2 z2 z A,,B,,C, | D,D, C,2 B,,2 z2 | G,2 F,G, E,2 E,2 | F,2 E,F, D,4 | %38
 G,4 C,4 | G,4 C,4 | A,,2 D,4 G,,2 | G,4 E,2 A,2- | A,2 D,2 (E,3 F,) | G,8 | C,8 | z2 C,4 C,2 | %46
 F,2 F,2 z2 F,F, | E,6 E,F, | D,8 | C,2 C,4 C,2 | D,4 _B,,4 | C,8 | F,,2 F,4 E,2 | %53
 D,D,D,D, D,2 E,^F, | G,G, G,4 F,2 | E,E,C,C, C,2 D,E, | F,2 F,2 z4 | z2 G,4 G,,2 | %58
 D,2 D,2 z2 D,D, | C,2 C,(C, D,4) | G,,G,G,E, F,2 D,2 | E,2 C,2 D,D, E,2 | F,4 z4 | %63
 z F,F,D, E,2 C,2 | G,2 G,2 z4 | G,2 E,2 G,4 | C,2 ^F,4 z2 | z2 ^G,4 z2 | A,G,G,F, F,F,F,E, | %69
 E,E,E,E, D,2 D,D, | E,8 | A,,2 ^C,4 z2 | D,C,C,_B,, B,,B,,B,,A,, | A,,A,,A,,A,, G,,2 G,,G,, | %74
 A,,8 | D,8 | z2 E,4 E,2 | F,4 F,2 B,,2 | C,4 C,2 E,,2 | G,,8 | C,8 |] %81
V:4
 C,6 C,2 | F,4 E,4 | A,8 | G,8 | D,4 A,2 G,F, | G,2 E,2 D,4 | C,8 | F,4 E,4 | A,8 | G,8 | %10
 E,3 F, G,4 | C,8 | G,4 G,,4 | D,2 B,,2 D,4 | G,,4 D,4 | C,2 G,,2 D,4 | G,,4 C,3 B,, | A,,4 ^F,,4 | %18
 =G,,8 | C,4 A,,4 | D,4 G,,4 | C,4 C,3 B,, | A,,4 E,4 | F,8 | F,4 G,4 | C,8 | E,,6 F,,2 | G,,8 | %28
 C,8 | z2 C,2 G,2 E,2 | F,4 E,4 | z E,E,E, E,2 A,,2 | G,,4 G,,4 | G,2 F,2 E,2 D,2 | %34
 C,2 B,,2 A,,2 B,,C, | D,2 C,2 B,,2 A,,2 | G,2 F,2 E,4 | F,2 E,2 D,4 | G,4 C,4 | G,4 C,4 | %40
 A,,2 D,4 G,,2 | G,4 E,2 A,2- | A,2 D,2 E,3 F, | G,8 | C,8 | z2 C,4 C,2 | F,2 F,2 z2 F,2 | %47
 E,4 E,4 | D,8 | C,6 C,2 | D,4 _B,,4 | C,8 | F,,2 F,4 E,2 | D,3 D, D,2 E,^F, | G,2 G,4 F,2 | %55
 E,2 C,4 D,E, | F,6 F,2 | _B,,2 G,,4 G,,2 | D,4 z2 D,2 | C,3 C, D,4 | G,,G,G,E, F,2 D,2 | %61
 E,2 C,2 D,2 E,2 | F,4 G,4 | F,2 F,D, E,2 C,2 | G,2 G,2 A,4 | G,2 E,2 G,4 | C,2 ^F,4 z2 | %67
 z2 ^G,4 z2 | A,2 G,2 F,4 | E,4 D,4 | E,8 | A,,2 ^C,4 z2 | D,2 C,2 _B,,4 | A,,4 G,,4 | A,,8 | D,8 | %76
 z2 E,4 E,2 | F,4 F,2 B,,2 | C,6 E,,2 | G,,8 | C,8 |] %81

